Papirus/64x64/apps/i-nex.svg

<svg width="64" height="64" version="1.1" xmlns="http://www.w3.org/2000/svg">
 <rect x="3" y="4" width="58" height="58" rx="2.9" ry="2.9" style="opacity:.2"/>
 <path d="m5.9 3h52.2c1.6066 0 2.9 1.2934 2.9 2.9v52.2c0 1.6066-1.2934 2.9-2.9 2.9h-42.1l-1-0.5-11.5-11.5-0.5-1v-42.1c0-1.6066 1.2934-2.9 2.9-2.9z" style="fill:#2b855b"/>
 <path d="m3 48v10.1c0 1.6066 1.2934 2.9 2.9 2.9h10.1z" style="fill:#ffb923"/>
 <rect x="11" y="12" width="42" height="42" rx="2.1" ry="2.1" style="opacity:.2"/>
 <rect x="11" y="11" width="42" height="42" rx="2.1" ry="2.1" style="fill:#c1c1c1"/>
 <rect x="29" y="27" width="6" height="20" style="fill:#4e4e4e"/>
 <rect x="29" y="17" width="6" height="6" style="fill:#4e4e4e"/>
 <path d="M 5.8984375 3 C 4.2918373 3 3 4.2918373 3 5.8984375 L 3 6.8984375 C 3 5.2918373 4.2918373 4 5.8984375 4 L 58.101562 4 C 59.708163 4 61 5.2918373 61 6.8984375 L 61 5.8984375 C 61 4.2918373 59.708163 3 58.101562 3 L 5.8984375 3 z" style="fill:#ffffff;opacity:.1"/>
 <path d="m13.101562 11c-1.163399 0-2.101562 0.938162-2.101562 2.101562v1c0-1.1634 0.938163-2.101562 2.101562-2.101562h37.796876c1.1634 0 2.101562 0.938162 2.101562 2.101562v-1c0-1.163399-0.938162-2.101562-2.101562-2.101562h-37.796876z" style="fill:#ffffff;opacity:.2"/>
</svg>

<svg xmlns="http://www.w3.org/2000/svg" width="64" height="64" version="1.1">
 <rect style="opacity:0.2" width="58" height="58" x="3" y="4" rx="2.9" ry="2.9"/>
 <path style="fill:#2b855b" d="M 5.9,3 H 58.1 C 59.7066,3 61,4.2934 61,5.9 V 58.1 C 61,59.7066 59.7066,61 58.1,61 H 15.025907 L 7.0963696,59.44472 C 5.5198086,59.135498 5.954968,58.806976 5.5123762,57.26254 L 3,48.495546 V 5.9 C 3,4.2934 4.2934,3 5.9,3 Z"/>
 <path style="fill:#ffb923" d="M 3,48.267188 V 58.1 C 3,59.7066 4.2934,61 5.9,61 h 9.832812 z"/>
 <rect style="opacity:0.2" width="42" height="42" x="11" y="12" rx="2.1" ry="2.1"/>
 <rect style="fill:#c1c1c1" width="42" height="42" x="11" y="11" rx="2.1" ry="2.1"/>
 <rect style="fill:#4e4e4e" width="6" height="20" x="29" y="27"/>
 <rect style="fill:#4e4e4e" width="6" height="6" x="29" y="17"/>
 <path style="opacity:0.1;fill:#ffffff" d="M 5.8984375 3 C 4.2918373 3 3 4.2918373 3 5.8984375 L 3 6.8984375 C 3 5.2918373 4.2918373 4 5.8984375 4 L 58.101562 4 C 59.708163 4 61 5.2918373 61 6.8984375 L 61 5.8984375 C 61 4.2918373 59.708163 3 58.101562 3 L 5.8984375 3 z"/>
 <path style="opacity:0.1" d="M 3 48.265625 L 3 49.265625 L 14.734375 61 L 15.734375 61 L 3 48.265625 z"/>
 <path style="opacity:0.2;fill:#ffffff" d="M 13.101562 11 C 11.938163 11 11 11.938162 11 13.101562 L 11 14.101562 C 11 12.938162 11.938163 12 13.101562 12 L 50.898438 12 C 52.061838 12 53 12.938162 53 14.101562 L 53 13.101562 C 53 11.938163 52.061838 11 50.898438 11 L 13.101562 11 z"/>
</svg>
